X:140
T: Edelmann und Knecht (2-42) S. 135
N: P0915
O: Lothringen
S: PINCK, Louis: Verklingende Weisen, Bd 2, Metz 1928]
R: Untreue, Beischlaf?]
M: 6/8
L: 1/16
K: G
D2 | G4G2G2G2A2 | _B4B2A4
GB | _B6A4B2 | G2G2G2G4A2 | _B4B2A4
cc | G4GGG4G2 | G6A4z2 |
d4d2d2c2_B2 | A6G4

@@@ Tune index: 7690
